X: 25931
T: Maureen's Fancy
R: jig
M: 6/8
K: Gmajor
|:DGG GED|EDG ~B,3|DGG AGA|Bdd dge|
dBB BAG|AGB ~E3|DGG AGA|BGG ~G3:|
|:Bdd dBA|Bdd ~d3|egg aga|bgg ~g2 e|
dBB BAG|AGB ~E3|DGG AGA|BGG ~G3:|

